X:1
T:Four potatoes
M:6/8
L:1/8
K:G
C:Larry Ungar
D |"G"G2G BAG | "F"ABc ABc |"G"B2G GDG| "F"=F2D D2F|!
"G"G2G BAG | "F" ABc ABc |"G"dBG "F" cA=F | "G"G2G G2z:|]!
"F"=f3 "C" e3 | "G"d2G GAB | "F" cA=F FGA | "G" Bdc Bde|!
"F"=f3 "C"e3 | "G" d2G GAB | "F" cBA G=FD | "G" G2G G2z:|]!
